X: 23476
T: Levi Beaulieu
R: reel
M: 4/4
K: Amixolydian
ed|:c2B2 AcBA|FBAF E2EA|BABc dBB2|ABcd efed|
c2B2 AcBA|FBAF E2EA|BABc dBB2|Acec [1 Afed:|2 A4||
|:a3b afed|cAce a2ef|g2ga gedB|GGBd g2fg|
a2ab afed|cAce a2ee|efec dcBd|cAAA A2 [1 fg:|2 ed||

